img/vite.svg

<svg width="110" height="126" viewBox="0 0 110 126" fill="none" xmlns="http://www.w3.org/2000/svg">
<g clip-path="url(#clip0_119_15)">
<path d="M109.636 18.7907L57.9635 124.358C56.8966 126.537 54.1557 126.55 53.0728 124.381L0.375732 18.8008C-0.803995 16.4372 0.965058 13.5742 3.30941 14.0529L55.0372 24.6166C55.3672 24.684 55.705 24.6834 56.035 24.6147L106.681 14.0681C109.018 13.5816 110.795 16.4224 109.636 18.7907Z" fill="url(#paint0_linear_119_15)"/>
<path d="M78.6004 0.49105L42.0686 8.81229C41.4682 8.94905 41.0236 9.54056 40.9874 10.2504L38.7402 54.3703C38.6873 55.4095 39.5083 56.216 40.3808 55.9821L50.5517 53.2534C51.5034 52.9983 52.3632 53.9726 52.1677 55.0851L49.1459 72.2863C48.9425 73.444 49.8775 74.4339 50.8501 74.0905L57.1322 71.8718C58.1061 71.5281 59.0419 72.5208 58.8358 73.6795L54.0336 100.699C53.7332 102.389 55.667 103.31 56.4735 101.861L57.0122 100.894L86.7804 31.8344C87.2789 30.6781 86.4193 29.3596 85.3268 29.6047L74.8574 31.9535C73.8736 32.174 73.0365 31.1089 73.3142 29.99L80.1474 2.45356C80.4253 1.33274 79.5853 0.266739 78.6004 0.49105Z" fill="url(#paint1_linear_119_15)"/>
</g>
<defs>
<linearGradient id="paint0_linear_119_15" x1="-0.910906" y1="10.2801" x2="74.8975" y2="100.392" gradientUnits="userSpaceOnUse">
<stop stop-color="#41D1FF"/>
<stop offset="1" stop-color="#BD34FE"/>
</linearGradient>
<linearGradient id="paint1_linear_119_15" x1="52.2235" y1="2.75025" x2="67.1332" y2="90.7346" gradientUnits="userSpaceOnUse">
<stop stop-color="#FFEA83"/>
<stop offset="0.0833333" stop-color="#FFDD35"/>
<stop offset="1" stop-color="#FFA800"/>
</linearGradient>
<clipPath id="clip0_119_15">
<rect width="110" height="126" fill="white"/>
</clipPath>
</defs>
</svg>

<svg xmlns="http://www.w3.org/2000/svg" width="110" height="126" fill="none"><g clip-path="url(#a)"><path fill="url(#b)" d="M109.636 18.79 57.964 124.359c-1.067 2.179-3.808 2.192-4.891.023L.376 18.801c-1.18-2.364.59-5.227 2.933-4.748l51.728 10.564c.33.067.668.066.998-.002l50.646-10.547c2.337-.486 4.114 2.354 2.955 4.723Z"/><path fill="url(#c)" d="M78.6.491 42.07 8.812c-.6.137-1.045.729-1.082 1.438L38.74 54.37c-.053 1.04.768 1.846 1.64 1.612l10.172-2.729c.951-.255 1.811.72 1.616 1.832l-3.022 17.201c-.203 1.158.731 2.148 1.704 1.805l6.282-2.22c.974-.343 1.91.65 1.704 1.809l-4.802 27.019c-.3 1.69 1.633 2.611 2.44 1.162l.538-.967 29.768-69.06c.499-1.156-.36-2.474-1.453-2.23l-10.47 2.35c-.983.22-1.82-.845-1.543-1.964l6.833-27.536C80.425 1.333 79.585.267 78.6.49Z"/></g><defs><linearGradient id="b" x1="-.911" x2="74.897" y1="10.28" y2="100.392" gradientUnits="userSpaceOnUse"><stop stop-color="#41D1FF"/><stop offset="1" stop-color="#BD34FE"/></linearGradient><linearGradient id="c" x1="52.224" x2="67.133" y1="2.75" y2="90.735" gradientUnits="userSpaceOnUse"><stop stop-color="#FFEA83"/><stop offset=".083" stop-color="#FFDD35"/><stop offset="1" stop-color="#FFA800"/></linearGradient><clipPath id="a"><path fill="#fff" d="M0 0h110v126H0z"/></clipPath></defs></svg>
